material/.icons/material/toggle-switch-off.svg

<svg xmlns="http://www.w3.org/2000/svg" viewBox="0 0 24 24"><path d="M17 7H7a5 5 0 00-5 5 5 5 0 005 5h10a5 5 0 005-5 5 5 0 00-5-5M7 15a3 3 0 01-3-3 3 3 0 013-3 3 3 0 013 3 3 3 0 01-3 3z"/></svg>

<?xml version="1.0" encoding="UTF-8"?><!DOCTYPE svg PUBLIC "-//W3C//DTD SVG 1.1//EN" "http://www.w3.org/Graphics/SVG/1.1/DTD/svg11.dtd"><svg xmlns="http://www.w3.org/2000/svg" xmlns:xlink="http://www.w3.org/1999/xlink" version="1.1" id="mdi-toggle-switch-off" width="24" height="24" viewBox="0 0 24 24"><path d="M17,7H7A5,5 0 0,0 2,12A5,5 0 0,0 7,17H17A5,5 0 0,0 22,12A5,5 0 0,0 17,7M7,15A3,3 0 0,1 4,12A3,3 0 0,1 7,9A3,3 0 0,1 10,12A3,3 0 0,1 7,15Z" /></svg>
